app/resource/noteInputSupportIcons/icon-quote.svg

<?xml version="1.0" encoding="UTF-8"?>
<svg width="20px" height="14px" viewBox="0 0 20 14" version="1.1" xmlns="http://www.w3.org/2000/svg" xmlns:xlink="http://www.w3.org/1999/xlink">
    <!-- Generator: Sketch 48.2 (47327) - http://www.bohemiancoding.com/sketch -->
    <title>icon-quote</title>
    <desc>Created with Sketch.</desc>
    <defs></defs>
    <g id="Edit-Page" stroke="none" stroke-width="1" fill="none" fill-rule="evenodd" transform="translate(-269.000000, -565.000000)">
        <g id="icon-quote" transform="translate(261.000000, 554.000000)">
            <g>
                <rect id="Rectangle-3" fill="#D8D8D8" opacity="0" x="0" y="0" width="36" height="36"></rect>
                <g id="icon-quotes" transform="translate(8.000000, 11.000000)" fill="#717171" fill-rule="nonzero">
                    <path d="M4.3902439,5.09090909 C6.80413659,5.09090909 8.76097561,7.0853125 8.76097561,9.54545455 C8.76097561,12.0055966 6.80413659,14 4.3902439,14 C1.97635122,14 0.0195121951,12.0055966 0.0195121951,9.54545455 L0,8.90909091 C0,3.98872727 3.91367805,0 8.74146341,0 L8.74146341,2.54545455 C7.07367805,2.54545455 5.50567805,3.20739205 4.32636098,4.40932386 C4.0993561,4.64072159 3.89217561,4.88691477 3.7052878,5.14551705 C3.92846829,5.10972159 4.15719024,5.09090909 4.3902439,5.09090909 Z M15.6292683,5.09090909 C18.043122,5.09090909 20,7.0853125 20,9.54545455 C20,12.0055966 18.043122,14 15.6292683,14 C13.2154146,14 11.2585366,12.0055966 11.2585366,9.54545455 L11.2390244,8.90909091 C11.2390244,3.98872727 15.1526634,0 19.9804878,0 L19.9804878,2.54545455 C18.3127415,2.54545455 16.7446634,3.20739205 15.5653854,4.40932386 C15.3383415,4.64072159 15.131161,4.88691477 14.9442732,5.14551705 C15.1674537,5.10972159 15.3961756,5.09090909 15.6292683,5.09090909 Z" id="Shape"></path>
                </g>
            </g>
        </g>
    </g>
</svg>

<?xml version="1.0" encoding="UTF-8"?><svg version="1.1" viewBox="0 0 20 14" xmlns="http://www.w3.org/2000/svg"><title>icon-quote</title><desc>Created with Sketch.</desc><g transform="translate(-269 -565)" fill="none" fill-rule="evenodd"><g transform="translate(261 554)"><rect width="36" height="36" fill="#D8D8D8" opacity="0"/><g transform="translate(8 11)" fill="#717171" fill-rule="nonzero"><path d="m4.3902 5.0909c2.4139 0 4.3707 1.9944 4.3707 4.4545s-1.9568 4.4545-4.3707 4.4545c-2.4139 0-4.3707-1.9944-4.3707-4.4545l-0.019512-0.63636c0-4.9204 3.9137-8.9091 8.7415-8.9091v2.5455c-1.6678 0-3.2358 0.66194-4.4151 1.8639-0.227 0.2314-0.43419 0.47759-0.62107 0.73619 0.22318-0.035795 0.4519-0.054608 0.68496-0.054608zm11.239 0c2.4139 0 4.3707 1.9944 4.3707 4.4545s-1.9569 4.4545-4.3707 4.4545-4.3707-1.9944-4.3707-4.4545l-0.019512-0.63636c0-4.9204 3.9136-8.9091 8.7415-8.9091v2.5455c-1.6677 0-3.2358 0.66194-4.4151 1.8639-0.22704 0.2314-0.43422 0.47759-0.62111 0.73619 0.22318-0.035795 0.4519-0.054608 0.685-0.054608z"/></g></g></g></svg>
